outputs/icons/action/calendar_weekly_sharp.svg

<svg xmlns="http://www.w3.org/2000/svg" width="1200" height="1200" fill="none"><g fill="#000" clip-path="url(#a)"><path d="M850 650H350V550h500z"/><path fill-rule="evenodd" d="M400 100v100h400V100h100v100h150v900H150l.489-900H300V100zM250 450v550h700V450z"/></g><defs><clipPath id="a"><path fill="#fff" d="M0 0h1200v1200H0z"/></clipPath></defs></svg>

<svg width="1200" height="1200" viewBox="0 0 1200 1200" fill="none" xmlns="http://www.w3.org/2000/svg"><g clip-path="url(#clip0_787_1803)"><path fill-rule="evenodd" d="M800 200V100H900V200H1050V1100H150L150.5 200H300V100H400V200H800ZM250 1000H950V450H250V1000ZM850 550H350V650H850V550Z" fill="#1D1E23"/></g><defs><clipPath id="clip0_787_1803"><path width="24" fill="white" d="M0 0H1200V1200H0V0z"/></clipPath></defs></svg>
